src/lib/packages/icons/src/assets/line/brush-alt.svg

<svg width="24" height="24" viewBox="0 0 24 24" fill="none" xmlns="http://www.w3.org/2000/svg">
<path d="M16.944 16.599C17.263 16.599 17.584 16.477 17.828 16.233L18.542 15.519C19.32 14.74 19.56 13.576 19.15 12.553L18.053 9.81001C17.929 9.50201 18.021 9.15503 18.281 8.94703L20.756 6.96699C21.344 6.49699 21.704 5.79599 21.746 5.04499C21.788 4.29399 21.507 3.55801 20.975 3.02601C20.442 2.49401 19.718 2.21101 18.954 2.25501C18.203 2.29701 17.504 2.658 17.034 3.245L15.054 5.71998C14.849 5.97498 14.497 6.06903 14.191 5.94703L11.448 4.84998C10.426 4.44098 9.26097 4.67999 8.48297 5.45899L7.76898 6.17298C7.42098 6.52098 7.33299 7.02303 7.48199 7.46003L2.91101 12.031C2.48601 12.456 2.25201 13.021 2.25201 13.622C2.25201 14.223 2.48601 14.788 2.91101 15.213L8.789 21.091C9.214 21.517 9.77898 21.751 10.381 21.751C10.982 21.751 11.547 21.517 11.972 21.092L16.543 16.521C16.672 16.565 16.807 16.599 16.944 16.599ZM10.89 6.24201L13.633 7.339C14.56 7.71 15.601 7.43501 16.225 6.65601L18.205 4.18104C18.411 3.92304 18.707 3.77102 19.037 3.75202C19.361 3.73402 19.679 3.85198 19.914 4.08698C20.147 4.32098 20.267 4.63198 20.248 4.96198C20.229 5.29298 20.077 5.58903 19.818 5.79603L17.343 7.77601C16.563 8.40001 16.289 9.44299 16.66 10.368L17.757 13.11C17.943 13.575 17.834 14.104 17.481 14.458L16.997 14.943C16.92 14.875 16.835 14.825 16.742 14.794L9.20599 7.258C9.17499 7.166 9.12501 7.08104 9.05701 7.00404L9.54199 6.51899C9.89599 6.16499 10.424 6.05701 10.89 6.24201ZM10.909 20.03C10.626 20.313 10.132 20.314 9.84802 20.03L5.93903 16.121L7.53003 14.53C7.82303 14.237 7.82303 13.762 7.53003 13.469C7.23703 13.176 6.76199 13.176 6.46899 13.469L4.87799 15.06L3.96899 14.151C3.82699 14.009 3.74902 13.821 3.74902 13.621C3.74902 13.421 3.82699 13.232 3.96899 13.09L8.44299 8.61604L15.382 15.556L10.909 20.03ZM21.75 21C21.75 21.414 21.414 21.75 21 21.75H16C15.586 21.75 15.25 21.414 15.25 21C15.25 20.586 15.586 20.25 16 20.25H21C21.414 20.25 21.75 20.586 21.75 21Z" fill="currentColor"/>
</svg>

<svg xmlns="http://www.w3.org/2000/svg" width="24" height="24" fill="none"><path fill="currentColor" d="M16.944 16.599c.319 0 .64-.122.884-.366l.714-.714a2.747 2.747 0 0 0 .608-2.966L18.053 9.81a.744.744 0 0 1 .228-.863l2.475-1.98a2.652 2.652 0 0 0 .219-3.941 2.652 2.652 0 0 0-3.941.219l-1.98 2.475a.753.753 0 0 1-.863.227L11.448 4.85a2.746 2.746 0 0 0-2.965.609l-.714.714c-.348.348-.436.85-.287 1.287l-4.571 4.571c-.425.425-.659.99-.659 1.591s.234 1.166.659 1.591l5.878 5.878c.425.426.99.66 1.592.66.601 0 1.166-.234 1.591-.659l4.571-4.571c.129.044.264.078.401.078ZM10.89 6.242l2.743 1.097a2.237 2.237 0 0 0 2.592-.683l1.98-2.475a1.146 1.146 0 0 1 2.043.78 1.137 1.137 0 0 1-.43.835l-2.475 1.98a2.236 2.236 0 0 0-.683 2.592l1.097 2.742a1.25 1.25 0 0 1-.276 1.348l-.484.485a.734.734 0 0 0-.255-.149L9.206 7.258a.739.739 0 0 0-.149-.254l.485-.485a1.25 1.25 0 0 1 1.348-.277Zm.019 13.788a.768.768 0 0 1-1.061 0l-3.909-3.909L7.53 14.53a.75.75 0 1 0-1.061-1.061L4.878 15.06l-.909-.909a.747.747 0 0 1 0-1.061l4.474-4.474 6.939 6.94-4.473 4.474ZM21.75 21a.75.75 0 0 1-.75.75h-5a.75.75 0 0 1 0-1.5h5a.75.75 0 0 1 .75.75Z"/></svg>
